X:393
T:Laington's Reel
T:Dillon Brown
R:reel
D:Kevin Burke: If the Cap Fits
Z:id:hn-reel-393
M:C|
K:A
cB|AFEF ~A3e|fece faaf|ec~c2 ac~c2|fcec BdcB|
AFEF ~A3e|fece ~f2af|ec~c2 acec|BdcB A2:|
ed|ceAe ceAc|BE~E2 BcdB|cAAG Acec|BE~E2 BcdB|
AccB cedc|~B3A BcdB|ABce faaf|eccB cdcB||
